src/images/rocket-riot/asteroid.svg

<svg height="115" viewBox="0 0 142 115" width="142" xmlns="http://www.w3.org/2000/svg"><g fill="none" fill-rule="nonzero"><path d="m95.3657965 17.3123077c24.5188255 4.0188597 16.0749185 29.1399371 19.7125995 38.3061184 1.331313 3.354627 6.78922 3.9897098 9.069284 6.9019699 7.880437 10.0654535-6.519115 35.4843252-20.367297 36.2877231-6.9279922.4019252-13.8728838-1.0155378-20.8097344-.7661968-17.7816479.6391508-38.6123892 6.2366747-49.4400041-11.8512537-3.1860515-5.3224162-3.5952155-11.733651-6.6365659-17.1241256-3.6867647-6.5344038-14.6047129-9.3778446-7.7626457-19.3681646 2.9653268-4.3297681 9.7536877-5.9334873 12.3620684-10.4453199 7.0042407-12.1155473-8.421228-9.6245998 6.2396125-18.2635023 11.2547491-6.6318627 11.4316075-.830263 24.7722435-1.830263 10.9074912-.6075023 22.1090979-3.6092286 32.8604392-1.8469855z" fill="#494a4f" transform="matrix(-1 0 0 -1 143.310438 116.120476)"/><path d="m18.622422 37.5449272c3.5965969-9.8562692 12.3572144-19.7365209 20.9076321-20.2325707 6.9279924-.4019252 13.872884 1.0155377 20.8097346.7661968 17.7816479-.6391508 38.6123892-6.2366748 49.4400043 11.8512537 3.186051 5.3224162 3.595215 11.733651 6.636566 17.1241256.558547.9899658 1.283067 1.8952152 2.086658 2.7534345-11.564287 9.7007001-27.194499 15.6525567-44.3977538 15.6525567-23.5998214 0-44.2393365-11.2007897-55.4828412-27.9150012z" fill="#98999d"/><path d="m29.313155 67.3504835c-.1254579-2.7015183-.3768934-5.073949-1.0811135-6.8484341-1.3313136-3.3546269-6.78922-3.9897097-9.0692843-6.9019698-.1373541-.1754384-.2679396-.355541-.3918774-.5400964-.4196889-.814332-.818328-1.6389236-1.195303-2.4732318-1.2068812-3.6657375-.6648339-8.3510648 1.0468452-13.0418242 11.2435047 16.7142069 31.8830198 27.9149966 55.4828412 27.9149966 17.2032548 0 32.8334668-5.9518566 44.3977538-15.6525567 4.500622 4.8065733 11.481478 8.1379492 5.675987 16.6147301-2.965326 4.3297681-9.753687 5.9334873-12.362068 10.4453199-.24639.426192-.465025.8343093-.65819 1.2254723-9.798372 5.3073592-21.3242316 8.3670344-33.658746 8.3670344-19.1624364 0-36.3731387-7.3846968-48.186845-19.1094403z" fill="#6f7075"/><g fill="#494a4f"><circle cx="74.385586" cy="27.355778" r="6" transform="matrix(-1 0 0 -1 148.771172 54.711556)"/><circle cx="93.385586" cy="27.355778" r="3" transform="matrix(-1 0 0 -1 186.771172 54.711556)"/><circle cx="83.385586" cy="45.355778" r="3" transform="matrix(-1 0 0 -1 166.771172 90.711556)"/></g><path d="m122.79895 100.194478c-2.421775 2.96677-5.521679 5.276236-10.093187 7.969998-7.482581 4.409112-13.7649179 6.055308-20.7605144 5.247644-.9883218-.114105-1.9149086-.264938-2.9662322-.467095-.4890939-.094047-1.93953-.389693-2.0044552-.402611-2.2103728-.43977-3.5794-.556297-5.967767-.377267l-.1530205.01147-.1532123.008533c-2.5284989.140827-4.7137667.381157-9.8773449 1.040981-.9979246.12752-1.4673942.187219-2.043099.259392-10.4804129 1.313874-16.9328158 1.587529-24.417762.360678-10.561321-1.731097-18.8690462-6.533652-24.3547914-14.1387578-4.3271065-5.998839-6.3337233-12.696675-7.1173887-20.6289582-.2630339-2.6624363-.3458544-4.5470474-.4580857-8.8019497-.0174985-.6634017-.0336061-1.2275903-.0494951-1.7162898-.3501809-.2085222-.6991965-.4263868-1.0756505-.671305-2.15753255-1.4036752-4.06295518-3.0390249-5.7366418-5.1767763-16.3581119-20.8937423 6.0216285-60.61484522 32.0388014-62.12422316 3.9852901-.23120533 6.8820247-.10163463 13.0425075.38452527 1.5550078.12271481 2.2334252.17418347 3.0479768.22853809 2.1188691.14139109 3.6922729.18616582 5.0711877.13660155 2.2317269-.0802181 4.1000583-.21182923 8.7207541-.5869393 1.6311464-.13241716 2.4651932-.19881122 3.4471281-.27275199 10.8656511-.8181954 18.0158418-.68999894 25.6055868 1.20618938 10.9446523 2.73436354 19.8500213 9.05359696 25.9695723 19.27653296 2.27298 3.7970959 3.310317 6.6110702 5.043595 12.404573l.014525.0485481c.813558 2.7192721 1.224975 3.9157537 1.616009 4.7063654.27067.2896235.675412.6782852 1.466065 1.4041877.210313.1929169.210313.1929169.436562.4002894.190785.174953.336928.3093107.483377.4445809 4.440647 4.1016623 6.928839 7.1075409 8.660546 12.3008014 2.498959 7.4941887.899466 15.1084611-3.848905 22.0417094-1.705333 2.4900096-3.726133 4.507961-6.089271 6.3335697-1.205461.9312625-2.153599 1.5788085-3.730241 2.5809266 1.514204 5.7443544.17287 11.7416329-3.767129 16.5682894z" fill="#98999d" fill-opacity=".12"/></g></svg>

<?xml version="1.0" encoding="UTF-8"?>
<svg width="142px" height="115px" viewBox="0 0 142 115" version="1.1" xmlns="http://www.w3.org/2000/svg" xmlns:xlink="http://www.w3.org/1999/xlink">
    <!-- Generator: Sketch 55.1 (78136) - https://sketchapp.com -->
    <title>Artboard Copy 15</title>
    <desc>Created with Sketch.</desc>
    <g id="Artboard-Copy-15" stroke="none" stroke-width="1" fill="none" fill-rule="evenodd">
        <path d="M95.3657965,17.3123077 C119.884622,21.3311674 111.440715,46.4522448 115.078396,55.6184261 C116.409709,58.9730531 121.867616,59.6081359 124.14768,62.520396 C132.028117,72.5858495 117.628565,98.0047212 103.780383,98.8081191 C96.8523908,99.2100443 89.9074992,97.7925813 82.9706486,98.0419223 C65.1890007,98.6810731 44.3582594,104.278597 33.5306445,86.1906686 C30.344593,80.8682524 29.935429,74.4570176 26.8940786,69.066543 C23.2073139,62.5321392 12.2893657,59.6886984 19.1314329,49.6983784 C22.0967597,45.3686103 28.8851206,43.7648911 31.4935013,39.2530585 C38.497742,27.1375112 23.0722733,29.6284587 37.7331138,20.9895562 C48.9878629,14.3576935 49.1647213,20.1592932 62.5053573,19.1592932 C73.4128485,18.5517909 84.6144552,15.5500646 95.3657965,17.3123077 Z" id="Mask" fill="#494A4F" fill-rule="nonzero" transform="translate(71.655219, 58.060238) rotate(180.000000) translate(-71.655219, -58.060238) "></path>
        <path d="M18.622422,37.5449272 C22.2190189,27.688658 30.9796364,17.8084063 39.5300541,17.3123565 C46.4580465,16.9104313 53.4029381,18.3278942 60.3397887,18.0785533 C78.1214366,17.4394025 98.9521779,11.8418785 109.779793,29.929807 C112.965844,35.2522232 113.375008,41.663458 116.416359,47.0539326 C116.974906,48.0438984 117.699426,48.9491478 118.503017,49.8073671 C106.93873,59.5080672 91.308518,65.4599238 74.1052632,65.4599238 C50.5054418,65.4599238 29.8659267,54.2591341 18.622422,37.5449226 L18.622422,37.5449272 Z" id="Path" fill="#98999D" fill-rule="nonzero"></path>
        <path d="M29.313155,67.3504835 C29.1876971,64.6489652 28.9362616,62.2765345 28.2320415,60.5020494 C26.9007279,57.1474225 21.4428215,56.5123397 19.1627572,53.6000796 C19.0254031,53.4246412 18.8948176,53.2445386 18.7708798,53.0599832 C18.3511909,52.2456512 17.9525518,51.4210596 17.5755768,50.5867514 C16.3686956,46.9210139 16.9107429,42.2356866 18.622422,37.5449272 C29.8659267,54.2591341 50.5054418,65.4599238 74.1052632,65.4599238 C91.308518,65.4599238 106.93873,59.5080672 118.503017,49.8073671 C123.003639,54.6139404 129.984495,57.9453163 124.179004,66.4220972 C121.213678,70.7518653 114.425317,72.3555845 111.816936,76.8674171 C111.570546,77.2936091 111.351911,77.7017264 111.158746,78.0928894 C101.360374,83.4002486 89.8345144,86.4599238 77.5,86.4599238 C58.3375636,86.4599238 41.1268613,79.075227 29.313155,67.3504835 L29.313155,67.3504835 Z" id="Path" fill="#6F7075" fill-rule="nonzero"></path>
        <circle id="Oval" fill="#494A4F" fill-rule="nonzero" transform="translate(74.385586, 27.355778) rotate(180.000000) translate(-74.385586, -27.355778) " cx="74.3855861" cy="27.3557776" r="6"></circle>
        <circle id="Oval-Copy-22" fill="#494A4F" fill-rule="nonzero" transform="translate(93.385586, 27.355778) rotate(180.000000) translate(-93.385586, -27.355778) " cx="93.3855861" cy="27.3557776" r="3"></circle>
        <circle id="Oval-Copy-23" fill="#494A4F" fill-rule="nonzero" transform="translate(83.385586, 45.355778) rotate(180.000000) translate(-83.385586, -45.355778) " cx="83.3855861" cy="45.3557776" r="3"></circle>
        <path d="M122.79895,100.194478 C120.377175,103.161248 117.277271,105.470714 112.705763,108.164476 C105.223182,112.573588 98.9408451,114.219784 91.9452486,113.41212 C90.9569268,113.298015 90.03034,113.147182 88.9790164,112.945025 C88.4899225,112.850978 87.0394864,112.555332 86.9745612,112.542414 C84.7641884,112.102644 83.3951612,111.986117 81.0067942,112.165147 L80.8537737,112.176617 L80.7005614,112.18515 C78.1720625,112.325977 75.9867947,112.566307 70.8232165,113.226131 C69.8252919,113.353651 69.3558223,113.41335 68.7801175,113.485523 C58.2997046,114.799397 51.8473017,115.073052 44.3623555,113.846201 C33.8010345,112.115104 25.4933093,107.312549 20.0075641,99.7074432 C15.6804576,93.7086042 13.6738408,87.0107682 12.8901754,79.078485 C12.6271415,76.4160487 12.544321,74.5314376 12.4320897,70.2765353 C12.4145912,69.6131336 12.3984836,69.048945 12.3825946,68.5602455 C12.0324137,68.3517233 11.6833981,68.1338587 11.3069441,67.8889405 C9.14941155,66.4852653 7.24398892,64.8499156 5.5703023,62.7121642 C-10.7878096,41.8184219 11.5919308,2.09731898 37.6091037,0.587941038 C41.5943938,0.356735709 44.4911284,0.486306413 50.6516112,0.972466311 C52.206619,1.09518112 52.8850364,1.14664978 53.699588,1.2010044 C55.8184571,1.34239549 57.3918609,1.38717022 58.7707757,1.33760595 C61.0025026,1.25738785 62.870834,1.12577672 67.4915298,0.750666647 C69.1226762,0.618249485 69.956723,0.551855426 70.9386579,0.477914658 C81.804309,-0.340280742 88.9544997,-0.212084275 96.5442447,1.68410404 C107.488897,4.41846758 116.394266,10.737701 122.513817,20.960637 C124.786797,24.7577329 125.824134,27.5717072 127.557412,33.36521 L127.571937,33.4137581 C128.385495,36.1330302 128.796912,37.3295118 129.187946,38.1201235 C129.458616,38.409747 129.863358,38.7984087 130.654011,39.5243112 C130.864324,39.7172281 130.864324,39.7172281 131.090573,39.9246006 C131.281358,40.0995536 131.427501,40.2339113 131.57395,40.3691815 C136.014597,44.4708438 138.502789,47.4767224 140.234496,52.6699829 C142.733455,60.1641716 141.133962,67.778444 136.385591,74.7116923 C134.680258,77.2017019 132.659458,79.2196533 130.29632,81.045262 C129.090859,81.9765245 128.142721,82.6240705 126.566079,83.6261886 C128.080283,89.370543 126.738949,95.3678215 122.79895,100.194478 Z" id="Path" fill-opacity="0.12" fill="#98999D" fill-rule="nonzero"></path>
    </g>
</svg>
